X:1
T: Lads of Air
C:
R:Reel
Q: 232
K:C
M:4/4
L:1/8
|:f|ed cA cG Gf|ed ce f2 e1/2f1/2g|ed ce d1/2c1/2B1/2A1/2 cG|A1/2B1/2c GE G3f|
ed cA cG Gf|ed ce f2 e1/2f1/2g|ed ce d1/2c1/2B1/2A1/2 cG|A1/2B1/2c GE G3e|
c1/2c1/2c g3/2a1/2 ge de|c1/2c1/2c ga g2 fe|c1/2c1/2c ga ge ce|fg ef d2 de|
c1/2c1/2c ga ge de|c1/2c1/2c ga g2 fe|ce gc' eg cg|af ge da gf:|
